docs/custom_svgs/wall-econic.svg

<svg viewBox="0 0 24 24" height="24px" width="24px" fill="#44739e" xmlns="http://www.w3.org/2000/svg"><title>hue:wall-econic</title><desc>Source: https://github.com/arallsopp/hass-hue-icons</desc><path d="M 10.228516 1.3710938 L 3.9121094 2.3828125 L 3.8886719 21.894531 L 10.183594 22.882812 L 21.265625 20.074219 L 21.265625 4.1816406 L 10.228516 1.3710938 z M 19.791016 5.65625 L 19.880859 18.626953 L 17.003906 18.357422 L 16.980469 16.849609 L 11.541016 17.525391 L 11.113281 17.501953 L 11.091797 6.7792969 L 11.517578 6.7578125 L 17.003906 7.4316406 L 17.003906 5.9492188 L 19.791016 5.65625 z M 10.035156 6.8242188 L 10.035156 17.480469 L 8.3945312 17.367188 L 8.3496094 6.9140625 L 10.035156 6.8242188 z "/></svg>

<svg viewBox="0 0 24 24" height="24px" width="24px" fill="#44739e" xmlns="http://www.w3.org/2000/svg"><title>hue:wall-econic</title><desc>Source: https://github.com/arallsopp/hass-hue-icons</desc><path d="M10.23,1.37L3.91,2.38L3.89,21.89l6.29,0.99l11.08-2.81V4.18L10.23,1.37z M19.79,5.66l0.09,12.97L17,18.36 l-0.02-1.51l-5.44,0.68l-0.43-0.02L11.09,6.78l0.43-0.02L17,7.43V5.95L19.79,5.66z M10.04,6.82v10.66l-1.64-0.11L8.35,6.91 L10.04,6.82z"/></svg>
